assets/icons/24px/outline/pencil-tip-24px.svg

<svg width="24" height="24" viewBox="0 0 24 24" fill="none" xmlns="http://www.w3.org/2000/svg">
<path d="M19 21L17.6431 14.2155C17.3352 12.6763 17.1813 11.9066 16.6284 11.4533C16.0754 11 15.2905 11 13.7208 11L10.2792 11C8.7095 11 7.92462 11 7.37167 11.4533C6.81871 11.9066 6.66478 12.6763 6.35692 14.2155L5 21" stroke="white" stroke-width="2" stroke-linecap="round"/>
<path d="M12 3L9 11L15 11L12 3Z" fill="white" stroke="white" stroke-width="2" stroke-linecap="round" stroke-linejoin="round"/>
</svg>

<svg width="24" height="24" fill="none" xmlns="http://www.w3.org/2000/svg"><path d="M19 21l-1.357-6.784c-.308-1.54-.462-2.31-1.015-2.763C16.075 11 15.29 11 13.721 11h-3.442c-1.57 0-2.354 0-2.907.453-.553.454-.707 1.223-1.015 2.763L5 21" stroke="#fff" stroke-width="2" stroke-linecap="round"/><path d="M12 3l-3 8h6l-3-8z" fill="#fff" stroke="#fff" stroke-width="2" stroke-linecap="round" stroke-linejoin="round"/></svg>
